openmetadata-ui/src/main/resources/ui/src/assets/svg/ic-increase-arrow.svg

<svg width="10" height="16" viewBox="0 0 10 16" fill="none" xmlns="http://www.w3.org/2000/svg">
<path d="M9.79853 3.73954L6.5496 0.239444C6.25319 -0.0797432 5.74722 -0.0802119 5.45041 0.239444L2.20119 3.73954C1.75725 4.21766 2.09569 4.99988 2.75078 4.99988H4.75V13.4999H2.12575C2.07651 13.4999 2.02774 13.5096 1.98225 13.5284C1.93675 13.5473 1.89541 13.5749 1.8606 13.6097L0.110596 15.3597C-0.125654 15.5959 0.0416582 15.9999 0.375752 15.9999H6.5C6.91422 15.9999 7.25 15.6641 7.25 15.2499V4.99988H9.24894C9.90138 4.99988 10.2443 4.2196 9.79853 3.73954Z" fill="#FF5151"/>
</svg>

<svg xmlns="http://www.w3.org/2000/svg" width="10" height="16" fill="none"><path fill="#FF5151" d="M9.799 3.74 6.549.24a.75.75 0 0 0-1.099 0l-3.249 3.5A.75.75 0 0 0 2.751 5H4.75v8.5H2.126a.376.376 0 0 0-.265.11L.11 15.36a.375.375 0 0 0 .265.64H6.5a.75.75 0 0 0 .75-.75V5h1.999a.75.75 0 0 0 .55-1.26Z"/></svg>
